X:1
T:Title
%%score { ( 1 3 5 ) | ( 2 4 ) }
L:1/8
M:3/4
K:A
V:1 treble nm="Grand Piano"
V:3 treble 
V:5 treble 
V:2 bass 
V:4 bass 
V:1
 z2 z2[Q:1/4=94] [CE]>[DF] | [CE]3 [CA] [DG][G,DF] | E2 z2 [A,EA]>[A,EA] | A3 G AF |[M:2/4] [CE]4 | %5
[M:1/4] [CE]>[CE] |[M:3/4] B3 ^A BE | [Ec]4 [Ec]>[Ec] | [B,E]3 [EG] [EG][^DF] |[M:2/4] E4 | %10
[M:1/4] E>d |[M:3/4] B3 G FE | A2 E2 E>d | B3 G FE |[M:2/4] [CA]4 |[M:1/4] [CE]>[DF] | %16
[M:3/4] [CE]3 [CA] [DG][DF] | E2 A2 F>F | E3 A B2 | [CA]6 |[M:4/4] z2 B6 | z2 A6 | %22
[M:3/4] [Ec]2 [B,E]3 [EG] | [EG][^DF] E4 | [CE]>[DF] [CE]3 [CA] | [DG][DF] C2- [CA]2 | F>F E3 A | %27
[M:2/4] B2 [CA]2- | [CA]2 z2 |] %29
V:2
 z2 z2 [A,,A,]>[A,,A,] | [A,,A,]3 [A,,A,] [A,,F,]A,, | z2 A2 C,>C, | %3
 [D,F,D]3 [D,^E,D] [D,F,D][D,A,D] |[M:2/4] [A,,A,]4 |[M:1/4] [A,,A,]>[A,,A,] | %6
[M:3/4] [E,G,D]3 [E,=G,D] [E,^G,D][E,B,D] | [A,,A,]4 [A,,A,]>[A,,A,] | %8
 [B,,G,]3 [B,,B,] [B,,B,][B,,A,] |[M:2/4] [E,G,]4 |[M:1/4] [E,G,D]>[E,G,D] | %11
[M:3/4] [E,G,D]3 [E,B,D] [E,A,D][E,G,D] | [A,,A,]4 [E,G,D]>[E,G,D] | %13
 [E,G,D]3 [E,B,D] [E,A,D][E,G,D] |[M:2/4] [A,,A,]4 |[M:1/4] [A,,A,]>[A,,A,] | %16
[M:3/4] [A,,A,]3 [A,,A,] [A,,F,][A,,G,] | [A,,A,]4 [D,A,B,]>[^D,A,=C] | [E,A,C]3 [E,CE] [E,G,D]2 | %19
 [A,,A,]6 |[M:4/4] z4 [E,G,D]>[E,G,D] [E,G,D]2 | z2 z [A,,A,] [D,A,]>[D,A,] [A,,A,]2 | %22
[M:3/4] [A,,A,]2 [B,,G,]3 [B,,B,] | [B,,B,][B,,A,] [E,G,]4 | [A,,A,]>[A,,A,] [A,,A,]3 [A,,A,] | %25
 [A,,F,][A,,G,] [A,,A,]4 | [D,A,B,]>[^D,A,=C] [E,A,B,]3 [E,^CE] |[M:2/4] [E,G,D]2 [A,,A,]2- | %28
 [A,,A,]2 z2 |] %29
V:3
 x6 | x6 | [A,C]4 z2 | x6 |[M:2/4] x4 |[M:1/4] x2 |[M:3/4] x6 | x6 | x6 |[M:2/4] x4 |[M:1/4] x2 | %11
[M:3/4] x6 | C4 z2 | x6 |[M:2/4] x4 |[M:1/4] x2 |[M:3/4] x6 | C4 z2 | x6 | x6 | %20
[M:4/4] B>^A z2 E>E z z/ B/ | c>B z [CE] [DF]>[DF] [CE]2 |[M:3/4] x6 | x6 | x6 | z2 E2 z2 | x6 | %27
[M:2/4] x4 | x4 |] %29
V:4
 x6 | x6 | A,,4 z2 | x6 |[M:2/4] x4 |[M:1/4] x2 |[M:3/4] x6 | x6 | x6 |[M:2/4] x4 |[M:1/4] x2 | %11
[M:3/4] x6 | x6 | x6 |[M:2/4] x4 |[M:1/4] x2 |[M:3/4] x6 | x6 | x6 | x6 |[M:4/4] x8 | x8 | %22
[M:3/4] x6 | x6 | x6 | x6 | x6 |[M:2/4] x4 | x4 |] %29
V:5
 x6 | x6 | x6 | x6 |[M:2/4] x4 |[M:1/4] x2 |[M:3/4] x6 | x6 | x6 |[M:2/4] x4 |[M:1/4] x2 | %11
[M:3/4] x6 | x6 | x6 |[M:2/4] x4 |[M:1/4] x2 |[M:3/4] x6 | x6 | x6 | x6 |[M:4/4] z4 z2 E2 | x8 | %22
[M:3/4] x6 | x6 | x6 | x6 | x6 |[M:2/4] x4 | x4 |] %29

